X:1
T: Little Peggy's Love
C:
R:Strathspey
Q: 128
K:A
M:4/4
L:1/16
|:A2|EA3 A3B c3B cA3|FB3 B3c d4 d2e2|fa3 e3c B3A Bc3|E3A G3B A6 e2|
a3g ac'3 a3g ac'3|a3b a3c' b6 c'2|a3e e3c f3d' c'3b|a3f e3c B6 A2|
EA3 A3B c3B cA3|FB3 B3c d4 d2e2|fa3 e3c B3A Bc3|E3A G3B A6 e2|
EA3 A3B c3B cA3|FB3 B3c d4 d2e2|fa3 e3c B3A Bc3|E3A G3B A6:|
